X: 33540
T: Raise The Ceiling, Drop The Floor
R: reel
M: 4/4
K: Dminor
DFAc =B2 GB|c=BAG AFDC|DFAc dAcd|efed cAGE|
DFAc ~=B3G|c=BAG AFDC|D~A,3 DEFd|1 cAGE FDDC:|2 cAGE FDD2||
d~f3 a~f3|cega gedc|d~f3 a~f3|abag fdec|
d~f3 a~f3|cega bagb|abag fdec|1 dcAF G/G/G Ac:|2 dcAF GFEC||

